src/travel-places/place-religious/26EA.svg

<svg id="emoji" viewBox="0 0 72 72" xmlns="http://www.w3.org/2000/svg">
  <g id="grid">
    <path fill="#b3b3b3" d="M68,4V68H4V4H68m4-4H0V72H72V0Z"/>
    <path fill="none" stroke="#00a5ff" stroke-miterlimit="10" stroke-width="0.1" d="M12.923,10.9583H59.0769A1.9231,1.9231,0,0,1,61,12.8814V59.0352a1.9231,1.9231,0,0,1-1.9231,1.9231H12.9231A1.9231,1.9231,0,0,1,11,59.0352V12.8813A1.923,1.923,0,0,1,12.923,10.9583Z"/>
    <rect x="16" y="4" rx="2.2537" width="40" height="64" fill="none" stroke="#00a5ff" stroke-miterlimit="10" stroke-width="0.1"/>
    <rect x="16" y="4" rx="2.2537" width="40" height="64" transform="translate(72) rotate(90)" fill="none" stroke="#00a5ff" stroke-miterlimit="10" stroke-width="0.1"/>
    <circle cx="36" cy="36" r="29" fill="none" stroke="#00a5ff" stroke-miterlimit="10" stroke-width="0.1"/>
  </g>
  <g id="color">
    <path fill="#D0CFCE" stroke="none" d="M44,36V20.9009v-0.4092l-7.2941-5.2706c-0.4081-0.2948-1.0039-0.2948-1.412,0L28,20.4917v0.4092V36"/>
    <polygon fill="#FFFFFF" stroke="none" points="18.9473,66 19,42.1016 36.0449,26.9849 53.0078,42.1133 53,66"/>
    <path fill="#A57939" stroke="none" stroke-linecap="round" stroke-miterlimit="10" stroke-width="2" d="M41,57.943 c0-3.8509-3.3484-6.1256-4.5649-6.8249c-0.274-0.1575-0.5962-0.1575-0.8702,0C34.3483,51.8174,31,54.0921,31,57.943v7.0894 C31,65.5668,31.4092,66,31.914,66h8.172C40.5908,66,41,65.5668,41,65.0324V57.943z"/>
    <circle cx="36" cy="42" r="5" fill="#92D3F5" stroke="none" stroke-miterlimit="10" stroke-width="2"/>
  </g>
  <g id="hair"/>
  <g id="skin"/>
  <g id="skin-shadow"/>
  <g id="line">
    <path fill="#000000" stroke="none" d="M36,28.3609l16,14.1949V65H20V42.5558L36,28.3609 M35.9999,26c-0.2207,0-0.4415,0.0789-0.6193,0.2367L18.3281,41.3654 C18.1197,41.5502,18,41.819,18,42.1017V66.027C18,66.5644,18.4241,67,18.9474,67h34.1052C53.5759,67,54,66.5644,54,66.027V42.1017 c0-0.2827-0.1197-0.5515-0.3281-0.7363L36.6193,26.2367C36.4414,26.0789,36.2207,26,35.9999,26L35.9999,26z"/>
    <path fill="none" stroke="#000000" stroke-linecap="round" stroke-linejoin="round" stroke-miterlimit="10" stroke-width="2" d="M43,29v-8.0991v-0.4092l-6.3823-5.2706c-0.3571-0.2948-0.8784-0.2948-1.2355,0L29,20.4917v0.4092V29"/>
    <line x1="36" x2="36" y1="14" y2="6" fill="none" stroke="#000000" stroke-linecap="round" stroke-miterlimit="10" stroke-width="2"/>
    <line x1="32.5" x2="39.5" y1="10" y2="10" fill="none" stroke="#000000" stroke-linecap="round" stroke-miterlimit="10" stroke-width="2"/>
    <path fill="none" stroke="#000000" stroke-linecap="round" stroke-miterlimit="10" stroke-width="2" d="M41,57.943 c0-3.8509-3.3484-6.1256-4.5649-6.8249c-0.274-0.1575-0.5962-0.1575-0.8702,0C34.3483,51.8174,31,54.0921,31,57.943v7.0894 C31,65.5668,31.4092,66,31.914,66h8.172C40.5908,66,41,65.5668,41,65.0324V57.943z"/>
    <circle cx="36" cy="42" r="5" fill="none" stroke="#000000" stroke-miterlimit="10" stroke-width="2"/>
  </g>
</svg>

<svg viewBox="0 0 72 72" xmlns="http://www.w3.org/2000/svg"><path fill="#b3b3b3" d="M68 4v64H4V4h64m4-4H0v72h72V0z"/><path fill="none" stroke="#00a5ff" stroke-miterlimit="10" stroke-width=".1" d="M12.923 10.958h46.154A1.923 1.923 0 0161 12.881v46.154a1.923 1.923 0 01-1.923 1.923H12.923A1.923 1.923 0 0111 59.035V12.881a1.923 1.923 0 011.923-1.923z"/><rect x="16" y="4" rx="2.254" width="40" height="64" fill="none" stroke="#00a5ff" stroke-miterlimit="10" stroke-width=".1"/><rect x="16" y="4" rx="2.254" width="40" height="64" transform="rotate(90 36 36)" fill="none" stroke="#00a5ff" stroke-miterlimit="10" stroke-width=".1"/><circle cx="36" cy="36" r="29" fill="none" stroke="#00a5ff" stroke-miterlimit="10" stroke-width=".1"/><g stroke-linecap="round" stroke-miterlimit="10" stroke-width="6" stroke="#fff" fill="none" stroke-linejoin="round"><path d="M36 28.36l16 14.196V65H20V42.556L36 28.36M36 26a.93.93 0 00-.62.237L18.329 41.365a.984.984 0 00-.328.737v23.925a.96.96 0 00.947.973h34.106a.96.96 0 00.947-.973V42.102a.984.984 0 00-.328-.737L36.619 26.237A.93.93 0 0036 26h0z"/><path d="M43 29v-8.508l-6.382-5.27a.974.974 0 00-1.236 0L29 20.491V29m7-15V6m-3.5 4h7M41 57.943c0-3.85-3.348-6.126-4.565-6.825a.86.86 0 00-.87 0c-1.217.7-4.565 2.974-4.565 6.825v7.09c0 .534.41.967.914.967h8.172c.505 0 .914-.433.914-.968v-7.089z"/><circle cx="36" cy="42" r="5"/></g><path fill="#D0CFCE" d="M44 36V20.492l-7.294-5.27a1.238 1.238 0 00-1.412 0L28 20.491V36"/><path fill="#FFF" d="M18.947 66L19 42.102l17.045-15.117 16.963 15.128L53 66z"/><path fill="#A57939" d="M41 57.943c0-3.85-3.348-6.126-4.565-6.825a.86.86 0 00-.87 0c-1.217.7-4.565 2.974-4.565 6.825v7.09c0 .534.41.967.914.967h8.172c.505 0 .914-.433.914-.968v-7.089z"/><circle cx="36" cy="42" r="5" fill="#92D3F5"/><path d="M36 28.36l16 14.196V65H20V42.556L36 28.36M36 26a.93.93 0 00-.62.237L18.329 41.365a.984.984 0 00-.328.737v23.925a.96.96 0 00.947.973h34.106a.96.96 0 00.947-.973V42.102a.984.984 0 00-.328-.737L36.619 26.237A.93.93 0 0036 26z"/><path fill="none" stroke="#000" stroke-linecap="round" stroke-linejoin="round" stroke-miterlimit="10" stroke-width="2" d="M43 29v-8.508l-6.382-5.27a.974.974 0 00-1.236 0L29 20.491V29"/><path fill="none" stroke="#000" stroke-linecap="round" stroke-miterlimit="10" stroke-width="2" d="M36 14V6m-3.5 4h7M41 57.943c0-3.85-3.348-6.126-4.565-6.825a.86.86 0 00-.87 0c-1.217.7-4.565 2.974-4.565 6.825v7.09c0 .534.41.967.914.967h8.172c.505 0 .914-.433.914-.968v-7.089z"/><circle cx="36" cy="42" r="5" fill="none" stroke="#000" stroke-miterlimit="10" stroke-width="2"/></svg>
